tools/download-figma-icons/icons/outlined-large/garage.svg

<svg width="64" height="65" viewBox="0 0 64 65" fill="none" xmlns="http://www.w3.org/2000/svg">
<path d="M43.5 52.9727H21.5C20.67 52.9727 20 53.6427 20 54.4727C20 55.3027 20.67 55.9727 21.5 55.9727H43.5C44.33 55.9727 45 55.3027 45 54.4727C45 53.6427 44.33 52.9727 43.5 52.9727Z" fill="black"/>
<path d="M43.5 44.8428H21.5C20.67 44.8428 20 45.5128 20 46.3428C20 47.1728 20.67 47.8428 21.5 47.8428H43.5C44.33 47.8428 45 47.1728 45 46.3428C45 45.5128 44.33 44.8428 43.5 44.8428Z" fill="black"/>
<path d="M43.51 36.9824H21.51C20.68 36.9824 20.01 37.6524 20.01 38.4824C20.01 39.3124 20.68 39.9824 21.51 39.9824H43.51C44.34 39.9824 45.01 39.3124 45.01 38.4824C45.01 37.6524 44.34 36.9824 43.51 36.9824Z" fill="black"/>
<path d="M58.5 60.9725H57L56.96 28.2625L57.66 28.7325C57.92 28.9025 58.21 28.9925 58.5 28.9925C58.98 28.9925 59.45 28.7625 59.74 28.3325C60.2 27.6425 60.03 26.7125 59.34 26.2525L32.84 8.2625C32.33 7.9125 31.66 7.9125 31.15 8.2625L4.66 26.2525C3.97 26.7225 3.8 27.6525 4.26 28.3325C4.73 29.0225 5.66 29.1925 6.34 28.7325L7 28.2825L7.04 60.9725H5.49C4.67 60.9725 4 61.6425 4 62.4725C4 63.3025 4.67 63.9725 5.5 63.9725H8.25C8.35 63.9925 8.45 64.0025 8.55 64.0025L32.4 63.9725H58.5C59.33 63.9725 60 63.3025 60 62.4725C60 61.6425 59.33 60.9725 58.5 60.9725ZM17 60.9725V34.3125C17 33.0325 17.93 31.9925 19.08 31.9925H45.92C47.07 31.9925 48 33.0325 48 34.3125V60.9525L32.39 60.9725H17ZM10.01 26.2425L32 11.3125L53.96 26.2225L54 60.9425H51V34.3025C51 31.3725 48.72 28.9825 45.92 28.9825H19.08C16.28 28.9825 14 31.3725 14 34.3025V60.9625H10.05L10.01 26.2325V26.2425Z" fill="black"/>
</svg>

<svg xmlns="http://www.w3.org/2000/svg" width="64" height="65" fill="none" viewBox="0 0 64 65"><path fill="currentColor" d="M43.5 52.973h-22c-.83 0-1.5.67-1.5 1.5s.67 1.5 1.5 1.5h22c.83 0 1.5-.67 1.5-1.5s-.67-1.5-1.5-1.5m0-8.13h-22c-.83 0-1.5.67-1.5 1.5s.67 1.5 1.5 1.5h22c.83 0 1.5-.67 1.5-1.5s-.67-1.5-1.5-1.5m.01-7.861h-22c-.83 0-1.5.67-1.5 1.5s.67 1.5 1.5 1.5h22c.83 0 1.5-.67 1.5-1.5s-.67-1.5-1.5-1.5"/><path fill="currentColor" d="M58.5 60.973H57l-.04-32.71.7.47a1.49 1.49 0 0 0 2.08-.4c.46-.69.29-1.62-.4-2.08l-26.5-17.99c-.51-.35-1.18-.35-1.69 0L4.66 26.252a1.498 1.498 0 0 0 1.68 2.48l.66-.45.04 32.69H5.49c-.82 0-1.49.67-1.49 1.5s.67 1.5 1.5 1.5h2.75q.15.03.3.03l23.85-.03h26.1c.83 0 1.5-.67 1.5-1.5s-.67-1.5-1.5-1.5m-41.5 0v-26.66c0-1.28.93-2.32 2.08-2.32h26.84c1.15 0 2.08 1.04 2.08 2.32v26.64l-15.61.02zm-6.99-34.73L32 11.313l21.96 14.91.04 34.72h-3v-26.64c0-2.93-2.28-5.32-5.08-5.32H19.08c-2.8 0-5.08 2.39-5.08 5.32v26.66h-3.95l-.04-34.73z"/></svg>
